;FLAVOR:Marlin
;TIME:6894
;Filament used: 3.07667m
;Layer height: 0.15
;MINX:82.122
;MINY:117.92
;MINZ:0.2
;MAXX:133.873
;MAXY:198.616
;MAXZ:6.95
;Generated with Cura_SteamEngine 4.7.1
M140 S60
M105
M190 S60
M104 S200
M105
M109 S200
M82 ;absolute extrusion mode
; -- START GCODE --
G21        ;metric values
G90        ;absolute positioning
M82        ;set extruder to absolute mode
M107       ;start with the fan off
G28 X0 Y0  ;move X/Y to min endstops
G28 Z0     ;move Z to min endstops
G1 Z1 F1000             ;move up slightly
G1 Y60.0 Z0 E9.0 F1000.0;intro line
G1 Y100.0 E21.5 F1000.0 ;continue line
G92 E0                  ;zero the extruded length again
G1 F80
;Put printing message on LCD screen
M117 Printing...
; -- end of START GCODE --
G92 E0
G92 E0
G1 F2700 E-5
;LAYER_COUNT:46
;LAYER:0
M107
G0 F3600 X91.006 Y122.666 Z0.2
;TYPE:SKIRT
G1 F2700 E0
G1 F1200 X92.074 Y121.944 E0.04288
G1 X92.34 Y121.772 E0.05341
G1 X92.94 Y121.401 E0.07688
G1 X93.074 Y121.32 E0.08208
G1 X93.69 Y120.956 E0.10588
G1 X93.828 Y120.876 E0.11119
G1 X94.449 Y120.526 E0.1349
G1 X95.148 Y120.147 E0.16134
G1 X95.627 Y119.898 E0.1793
G1 X96.248 Y119.59 E0.20235
G1 X96.84 Y119.308 E0.22416
G1 X97.006 Y119.231 E0.23025
G1 X97.496 Y119.012 E0.2481
G1 X97.659 Y118.941 E0.25401
G1 X98.152 Y118.734 E0.2718
G1 X98.352 Y118.653 E0.27898
G1 X98.824 Y118.47 E0.29581
G1 X99.574 Y118.223 E0.32208
G1 X100.093 Y118.099 E0.33982
G1 X100.873 Y117.978 E0.36608
G1 X101.344 Y117.944 E0.38178
G1 X101.913 Y117.92 E0.40072
G1 X102.63 Y117.923 E0.42457
G1 X103.132 Y117.948 E0.44129
G1 X103.363 Y117.963 E0.44899
G1 X104.083 Y118.021 E0.47301
G1 X105.04 Y118.102 E0.50496
G1 X105.668 Y118.141 E0.52589
G1 X106.407 Y118.178 E0.5505
G1 X107.369 Y118.204 E0.5825
G1 X108.268 Y118.207 E0.6124
G1 X109.059 Y118.195 E0.63872
G1 X109.82 Y118.169 E0.66404
G1 X110.654 Y118.124 E0.69182
G1 X111.404 Y118.066 E0.71684
G1 X112.043 Y118.01 E0.73818
G1 X112.618 Y117.966 E0.75736
G1 X112.858 Y117.951 E0.76535
G1 X113.429 Y117.925 E0.78436
G1 X114.122 Y117.924 E0.80741
G1 X114.629 Y117.946 E0.82429
G1 X115.415 Y118.02 E0.85055
G1 X116.088 Y118.149 E0.87334
G1 X116.295 Y118.198 E0.88042
G1 X117.053 Y118.418 E0.90667
G1 X117.489 Y118.584 E0.92219
G1 X118.014 Y118.802 E0.94109
G1 X118.819 Y119.152 E0.97029
G1 X119.038 Y119.252 E0.9783
G1 X119.846 Y119.636 E1.00805
G1 X120.509 Y119.967 E1.0327
G1 X120.701 Y120.066 E1.03988
G1 X121.343 Y120.409 E1.06409
G1 X122.122 Y120.845 E1.09378
G1 X122.279 Y120.935 E1.0998
G1 X122.904 Y121.305 E1.12396
G1 X123.031 Y121.382 E1.1289
G1 X123.649 Y121.764 E1.15306
G1 X123.904 Y121.929 E1.16317
G1 X124.913 Y122.606 E1.20358
G1 X125.547 Y123.078 E1.22987
G1 X125.927 Y123.392 E1.24626
G1 X126.33 Y123.749 E1.26417
G1 X126.707 Y124.107 E1.28146
G1 X127.083 Y124.489 E1.29929
G1 X127.417 Y124.853 E1.31572
G1 X127.793 Y125.295 E1.33502
G1 X128.13 Y125.722 E1.35311
G1 X128.505 Y126.24 E1.37438
G1 X128.827 Y126.725 E1.39375
G1 X129.135 Y127.229 E1.41339
G1 X129.402 Y127.706 E1.43157
G1 X129.764 Y128.44 E1.45879
G1 X129.996 Y128.981 E1.47837
G1 X130.321 Y129.748 E1.50608
G1 X130.427 Y130.011 E1.51551
G1 X130.617 Y130.509 E1.53324
G1 X130.939 Y131.374 E1.56394
G1 X131.097 Y131.802 E1.57911
G1 X131.514 Y133.006 E1.62149
G1 X131.735 Y133.765 E1.64778
G1 X131.877 Y134.541 E1.67402
G1 X131.907 Y134.913 E1.68643
G1 X132.132 Y135.333 E1.70228
G1 X132.432 Y136.063 E1.72853
G1 X132.623 Y136.685 E1.75017
G1 X132.947 Y137.927 E1.79287
G1 X133.112 Y138.608 E1.81617
G1 X133.208 Y139 E1.82959
G1 X133.414 Y139.903 E1.8604
G1 X133.638 Y140.942 E1.89575
G1 X133.772 Y141.788 E1.92424
G1 X133.819 Y142.245 E1.93952
G1 X133.86 Y143.034 E1.9658
G1 X133.832 Y143.707 E1.9882
G1 X133.788 Y144.222 E2.00539
G1 X133.737 Y144.668 E2.02032
G1 X133.647 Y145.294 E2.04136
G1 X133.618 Y145.479 E2.04759
G1 X133.418 Y146.667 E2.08765
G1 X133.31 Y147.346 E2.11052
G1 X133.226 Y147.96 E2.13113
G1 X133.131 Y148.758 E2.15786
G1 X133.053 Y149.526 E2.18354
G1 X133.009 Y149.979 E2.19868
G1 X132.941 Y150.806 E2.22628
G1 X132.904 Y151.282 E2.24215
G1 X132.849 Y152.114 E2.26989
G1 X132.82 Y152.589 E2.28572
G1 X132.752 Y154 E2.3327
G1 X132.725 Y154.751 E2.35769
G1 X132.706 Y155.334 E2.3771
G1 X132.679 Y156.588 E2.41881
G1 X132.667 Y158.001 E2.46581
G1 X132.672 Y159.256 E2.50755
G1 X132.694 Y160.587 E2.55183
G1 X132.734 Y161.939 E2.59682
G1 X132.767 Y162.773 E2.62458
G1 X132.789 Y163.253 E2.64056
G1 X132.867 Y164.645 E2.68693
G1 X132.961 Y165.899 E2.72875
G1 X133.029 Y166.664 E2.7543
G1 X133.084 Y167.25 E2.77387
G1 X133.159 Y167.952 E2.79736
G1 X133.254 Y168.697 E2.82234
G1 X133.353 Y169.384 E2.84542
G1 X133.468 Y170.087 E2.86911
G1 X133.57 Y170.67 E2.8888
G1 X133.654 Y171.174 E2.90579
G1 X133.68 Y171.343 E2.91148
G1 X133.758 Y171.884 E2.92966
G1 X133.818 Y172.438 E2.94819
G1 X133.856 Y172.967 E2.96583
G1 X133.873 Y173.757 E2.99212
G1 X133.813 Y174.514 E3.01737
G1 X133.753 Y174.984 E3.03313
G1 X133.631 Y175.684 E3.05677
G1 X133.401 Y176.721 E3.09209
G1 X133.147 Y177.827 E3.12984
G1 X133.113 Y177.969 E3.13469
G1 X132.985 Y178.482 E3.15228
G1 X132.773 Y179.31 E3.18071
G1 X132.653 Y179.775 E3.19668
G1 X132.512 Y180.284 E3.21425
G1 X132.415 Y180.644 E3.22665
G1 X132.18 Y181.464 E3.25502
G1 X131.924 Y182.211 E3.28128
G1 X131.659 Y182.803 E3.30286
G1 X131.609 Y182.994 E3.30942
G1 X131.436 Y183.764 E3.33567
G1 X131.278 Y184.265 E3.35314
G1 X130.966 Y185.152 E3.38442
G1 X130.742 Y185.761 E3.406
G1 X130.517 Y186.333 E3.42644
G1 X130.225 Y187.047 E3.4521
G1 X130.001 Y187.578 E3.47127
G1 X129.664 Y188.277 E3.49708
G1 X129.396 Y188.769 E3.51571
G1 X129.072 Y189.31 E3.53669
G1 X128.744 Y189.811 E3.5566
G1 X128.353 Y190.356 E3.57891
G1 X128.013 Y190.789 E3.59722
G1 X127.587 Y191.287 E3.61902
G1 X127.141 Y191.766 E3.64079
G1 X126.654 Y192.245 E3.66351
G1 X126.178 Y192.674 E3.68482
G1 X125.617 Y193.135 E3.70897
G1 X125.103 Y193.518 E3.73029
G1 X124.392 Y193.989 E3.75866
G1 X123.738 Y194.372 E3.78386
G1 X122.838 Y194.88 E3.81824
G1 X122.597 Y195.01 E3.82735
G1 X121.985 Y195.328 E3.85028
G1 X121.258 Y195.7 E3.87745
G1 X120.793 Y195.93 E3.8947
G1 X120.073 Y196.275 E3.92126
G1 X119.93 Y196.342 E3.92651
G1 X119.336 Y196.611 E3.9482
G1 X118.584 Y196.938 E3.97547
G1 X118.397 Y197.017 E3.98222
G1 X117.63 Y197.327 E4.00974
G1 X117.439 Y197.401 E4.01655
G1 X116.691 Y197.68 E4.0431
G1 X116.156 Y197.871 E4.062
G1 X115.934 Y197.946 E4.06979
G1 X115.39 Y198.122 E4.08881
G1 X114.735 Y198.303 E4.11141
G1 X114.256 Y198.413 E4.12776
G1 X113.478 Y198.551 E4.15404
G1 X112.585 Y198.611 E4.1838
G1 X112.064 Y198.616 E4.20113
G1 X111.752 Y198.612 E4.21151
G1 X111.177 Y198.595 E4.23064
G1 X110.492 Y198.57 E4.25344
G1 X109.974 Y198.549 E4.27069
G1 X109.48 Y198.533 E4.28712
G1 X108.826 Y198.516 E4.30888
G1 X108.311 Y198.51 E4.32601
G1 X107.699 Y198.512 E4.34637
G1 X107.139 Y198.518 E4.365
G1 X106.696 Y198.528 E4.37973
G1 X105.733 Y198.561 E4.41178
G1 X104.585 Y198.604 E4.44999
G1 X104.078 Y198.615 E4.46686
G1 X103.677 Y198.614 E4.4802
G1 X103.173 Y198.599 E4.49697
G1 X102.219 Y198.511 E4.52883
G1 X102.193 Y198.507 E4.52971
G1 X101.229 Y198.296 E4.56253
G1 X100.657 Y198.132 E4.58232
G1 X100.357 Y198.039 E4.59277
G1 X99.834 Y197.866 E4.61109
G1 X99.62 Y197.792 E4.61862
G1 X98.877 Y197.522 E4.64491
G1 X98.666 Y197.442 E4.65242
G1 X97.932 Y197.151 E4.67868
G1 X97.74 Y197.072 E4.68559
G1 X97.2 Y196.84 E4.70513
G1 X96.478 Y196.522 E4.73137
G1 X96.315 Y196.448 E4.73733
G1 X95.497 Y196.064 E4.76738
G1 X94.794 Y195.721 E4.7934
G1 X93.987 Y195.312 E4.82349
G1 X93.253 Y194.926 E4.85107
G1 X93.053 Y194.818 E4.85863
G1 X92.199 Y194.335 E4.89127
G1 X91.715 Y194.056 E4.90985
G1 X91.02 Y193.604 E4.93742
G1 X90.535 Y193.251 E4.95737
G1 X90.032 Y192.853 E4.97871
G1 X89.604 Y192.484 E4.9975
G1 X89.148 Y192.057 E5.01828
G1 X88.743 Y191.647 E5.03745
G1 X88.295 Y191.153 E5.05963
G1 X87.885 Y190.66 E5.08095
G1 X87.459 Y190.098 E5.10441
G1 X87.098 Y189.574 E5.12557
G1 X86.729 Y188.984 E5.14872
G1 X86.419 Y188.435 E5.16969
G1 X86.035 Y187.656 E5.19858
G1 X85.742 Y186.966 E5.22351
G1 X85.425 Y186.191 E5.25136
G1 X85.33 Y185.949 E5.26001
G1 X85.006 Y185.072 E5.2911
G1 X84.809 Y184.518 E5.31066
G1 X84.642 Y184.037 E5.32759
G1 X84.422 Y183.279 E5.35384
G1 X84.326 Y182.762 E5.37133
G1 X84.042 Y182.126 E5.3945
G1 X83.815 Y181.453 E5.41812
G1 X83.57 Y180.598 E5.44771
G1 X83.412 Y180.032 E5.46725
G1 X83.315 Y179.673 E5.47962
G1 X83.104 Y178.868 E5.5073
G1 X82.884 Y177.979 E5.53776
G1 X82.732 Y177.325 E5.56009
G1 X82.64 Y176.936 E5.57338
G1 X82.362 Y175.661 E5.61679
G1 X82.243 Y174.963 E5.64034
G1 X82.18 Y174.457 E5.6573
G1 X82.122 Y173.669 E5.68358
G1 X82.149 Y172.825 E5.71166
G1 X82.196 Y172.278 E5.72992
G1 X82.251 Y171.802 E5.74586
G1 X82.344 Y171.175 E5.76694
G1 X82.662 Y169.292 E5.83046
G1 X82.773 Y168.493 E5.85729
G1 X82.836 Y167.98 E5.87448
G1 X82.875 Y167.642 E5.8858
G1 X82.927 Y167.143 E5.90248
G1 X82.957 Y166.838 E5.91268
G1 X83.009 Y166.271 E5.93161
G1 X83.04 Y165.899 E5.94403
G1 X83.108 Y165.004 E5.97388
G1 X83.142 Y164.486 E5.99115
G1 X83.164 Y164.12 E6.00334
G1 X83.212 Y163.249 E6.03236
G1 X83.238 Y162.679 E6.05134
G1 X83.271 Y161.819 E6.07996
G1 X83.3 Y160.833 E6.11277
G1 X83.309 Y160.46 E6.12518
G1 X83.32 Y159.926 E6.14294
G1 X83.33 Y159.035 E6.17258
G1 X83.333 Y158.619 E6.18642
G1 X83.333 Y157.689 E6.21735
G1 X83.329 Y157.17 E6.23461
G1 X83.316 Y156.242 E6.26548
G1 X83.308 Y155.887 E6.27729
G1 X83.274 Y154.681 E6.31742
G1 X83.245 Y153.938 E6.34215
G1 X83.224 Y153.445 E6.35856
G1 X83.185 Y152.67 E6.38437
G1 X83.158 Y152.209 E6.39973
G1 X83.108 Y151.436 E6.42549
G1 X83.072 Y150.945 E6.44187
G1 X83.014 Y150.243 E6.4653
G1 X82.974 Y149.789 E6.48045
G1 X82.856 Y148.638 E6.51894
G1 X82.781 Y148.012 E6.53991
G1 X82.716 Y147.527 E6.55618
G1 X82.624 Y146.901 E6.57723
G1 X82.546 Y146.422 E6.59337
G1 X82.445 Y145.844 E6.61288
G1 X82.343 Y145.237 E6.63336
G1 X82.294 Y144.903 E6.64458
G1 X82.227 Y144.362 E6.66272
G1 X82.173 Y143.687 E6.68524
G1 X82.153 Y143.139 E6.70348
G1 X82.164 Y142.35 E6.72972
G1 X82.27 Y141.48 E6.75887
G1 X82.359 Y140.983 E6.77566
G1 X82.521 Y140.222 E6.80154
G1 X82.616 Y139.774 E6.81677
G1 X82.823 Y138.892 E6.84691
G1 X83.041 Y138 E6.87745
G1 X83.366 Y136.731 E6.92102
G1 X83.6 Y135.977 E6.94728
G1 X83.91 Y135.25 E6.97356
G1 X84.099 Y134.867 E6.98777
G1 X84.204 Y134.084 E7.01404
G1 X84.388 Y133.316 E7.04031
G1 X84.509 Y132.937 E7.05354
G1 X84.79 Y132.135 E7.08181
G1 X85.055 Y131.391 E7.10808
G1 X85.27 Y130.806 E7.1288
G1 X85.584 Y129.988 E7.15795
G1 X85.676 Y129.76 E7.16612
G1 X86.2 Y128.52 E7.2109
G1 X86.537 Y127.821 E7.23671
G1 X86.783 Y127.37 E7.25379
G1 X87.073 Y126.882 E7.27268
G1 X87.346 Y126.458 E7.28945
G1 X87.639 Y126.034 E7.30659
G1 X87.932 Y125.639 E7.32295
G1 X88.312 Y125.166 E7.34313
G1 X88.68 Y124.743 E7.36178
G1 X89.112 Y124.286 E7.38269
G1 X89.517 Y123.89 E7.40153
G1 X89.956 Y123.492 E7.42124
G1 X90.36 Y123.153 E7.43878
G1 X91.006 Y122.666 E7.46569
G0 F3600 X91.23 Y122.997
G1 F1200 X92.298 Y122.275 E7.50857
G1 X92.55 Y122.112 E7.51855
G1 X93.15 Y121.741 E7.54201
G1 X93.277 Y121.664 E7.54695
G1 X93.893 Y121.3 E7.57075
G1 X94.025 Y121.224 E7.57581
G1 X94.754 Y120.814 E7.60363
G1 X95.221 Y120.561 E7.6213
G1 X95.812 Y120.253 E7.64346
G1 X96.425 Y119.949 E7.66622
G1 X97.012 Y119.669 E7.68785
G1 X97.17 Y119.596 E7.69364
G1 X97.66 Y119.377 E7.71149
G1 X97.814 Y119.31 E7.71708
G1 X98.307 Y119.103 E7.73486
G1 X98.497 Y119.026 E7.74168
G1 X98.969 Y118.843 E7.75852
G1 X99.7 Y118.603 E7.78411
G1 X100.174 Y118.49 E7.80032
G1 X100.934 Y118.374 E7.82589
G1 X101.361 Y118.344 E7.84012
G1 X101.93 Y118.32 E7.85907
G1 X102.61 Y118.322 E7.88168
G1 X103.112 Y118.347 E7.8984
G1 X103.331 Y118.361 E7.9057
G1 X104.047 Y118.419 E7.92959
G1 X104.563 Y118.466 E7.94682
G1 X104.986 Y118.499 E7.96094
G1 X105.623 Y118.539 E7.98216
G1 X106.418 Y118.579 E8.00864
G1 X107.291 Y118.602 E8.03769
G1 X107.467 Y118.604 E8.04354
G1 X108.272 Y118.607 E8.07031
G1 X109.029 Y118.596 E8.0955
G1 X109.907 Y118.565 E8.12472
G1 X110.664 Y118.524 E8.14993
G1 X111.462 Y118.463 E8.17655
G1 X112.073 Y118.409 E8.19695
G1 X112.648 Y118.365 E8.21613
G1 X112.876 Y118.351 E8.22373
G1 X113.447 Y118.325 E8.24274
G1 X114.105 Y118.324 E8.26463
G1 X114.612 Y118.346 E8.2815
G1 X115.377 Y118.419 E8.30706
G1 X115.996 Y118.538 E8.32803
G1 X116.203 Y118.587 E8.3351
G1 X116.941 Y118.803 E8.36068
G1 X117.336 Y118.954 E8.37474
G1 X117.861 Y119.172 E8.39365
G1 X118.659 Y119.519 E8.42259
G1 X118.866 Y119.613 E8.43016
G1 X119.529 Y119.927 E8.45455
G1 X119.667 Y119.994 E8.45966
G1 X120.33 Y120.325 E8.4843
G1 X120.512 Y120.419 E8.49112
G1 X121.154 Y120.762 E8.51533
G1 X121.926 Y121.194 E8.54475
G1 X122.075 Y121.279 E8.55046
G1 X122.821 Y121.722 E8.57931
G1 X123.439 Y122.104 E8.60348
G1 X123.681 Y122.261 E8.61307
G1 X124.69 Y122.938 E8.65349
G1 X125.293 Y123.387 E8.67849
G1 X125.673 Y123.701 E8.69489
G1 X126.055 Y124.039 E8.71185
G1 X126.432 Y124.397 E8.72914
G1 X126.788 Y124.76 E8.74605
G1 X127.122 Y125.124 E8.76248
G1 X127.479 Y125.543 E8.78079
G1 X127.816 Y125.97 E8.79889
G1 X128.172 Y126.461 E8.81906
G1 X128.494 Y126.946 E8.83842
G1 X128.786 Y127.425 E8.85708
G1 X129.053 Y127.902 E8.87526
G1 X129.396 Y128.598 E8.90107
G1 X129.628 Y129.137 E8.92058
G1 X129.953 Y129.904 E8.94829
G1 X130.053 Y130.153 E8.95722
G1 X130.234 Y130.627 E8.97409
G1 X130.56 Y131.502 E9.00515
G1 X130.719 Y131.933 E9.02043
G1 X131.136 Y133.137 E9.06281
G1 X131.35 Y133.876 E9.0884
G1 X131.486 Y134.633 E9.11398
G1 X131.514 Y135.023 E9.12698
G1 X131.804 Y135.576 E9.14775
G1 X132.087 Y136.291 E9.17333
G1 X132.236 Y136.786 E9.19052
G1 X132.525 Y137.89 E9.22848
G1 X132.558 Y138.021 E9.23297
G1 X132.71 Y138.65 E9.25449
G1 X132.818 Y139.089 E9.26953
G1 X133.023 Y139.987 E9.30016
G1 X133.247 Y141.026 E9.33552
G1 X133.374 Y141.829 E9.36256
G1 X133.421 Y142.286 E9.37784
G1 X133.46 Y143.054 E9.40341
G1 X133.433 Y143.673 E9.42402
G1 X133.389 Y144.188 E9.44121
G1 X133.341 Y144.611 E9.45537
G1 X133.251 Y145.237 E9.47641
G1 X133.223 Y145.413 E9.48233
G1 X133.034 Y146.538 E9.52027
G1 X132.916 Y147.279 E9.54523
G1 X132.83 Y147.905 E9.56625
G1 X132.762 Y148.449 E9.58448
G1 X132.733 Y148.715 E9.59338
G1 X132.655 Y149.486 E9.61916
G1 X132.605 Y150.011 E9.6367
G1 X132.542 Y150.773 E9.66213
G1 X132.505 Y151.255 E9.67821
G1 X132.45 Y152.087 E9.70594
G1 X132.42 Y152.569 E9.722
G1 X132.379 Y153.399 E9.74964
G1 X132.352 Y153.981 E9.76902
G1 X132.325 Y154.737 E9.79418
G1 X132.306 Y155.321 E9.81361
G1 X132.278 Y156.66 E9.85816
G1 X132.267 Y157.998 E9.90266
G1 X132.269 Y158.732 E9.92707
G1 X132.273 Y159.313 E9.9464
G1 X132.294 Y160.599 E9.98918
G1 X132.336 Y162.012 E10.0362
G1 X132.367 Y162.759 E10.06106
G1 X132.394 Y163.36 E10.08107
G1 X132.466 Y164.636 E10.12358
G1 X132.521 Y165.392 E10.14879
G1 X132.56 Y165.903 E10.16584
G1 X132.631 Y166.701 E10.19248
G1 X132.679 Y167.217 E10.20972
G1 X132.757 Y167.952 E10.2343
G1 X132.854 Y168.728 E10.26031
G1 X132.958 Y169.449 E10.28454
G1 X133.074 Y170.156 E10.30837
G1 X133.175 Y170.735 E10.32792
G1 X133.259 Y171.239 E10.34491
G1 X133.284 Y171.4 E10.35033
G1 X133.362 Y171.941 E10.36851
G1 X133.419 Y172.467 E10.38611
G1 X133.457 Y172.996 E10.40375
G1 X133.472 Y173.765 E10.42933
G1 X133.416 Y174.463 E10.45262
G1 X133.356 Y174.933 E10.46838
G1 X133.241 Y175.597 E10.49079
G1 X133.011 Y176.631 E10.52603
G1 X132.725 Y177.872 E10.56838
G1 X132.597 Y178.385 E10.58597
G1 X132.385 Y179.212 E10.61436
G1 X132.146 Y180.106 E10.64514
G1 X132.031 Y180.534 E10.65988
G1 X131.796 Y181.354 E10.68825
G1 X131.546 Y182.081 E10.71382
G1 X131.301 Y182.624 E10.73364
G1 X131.214 Y182.926 E10.74409
G1 X131.045 Y183.676 E10.76966
G1 X130.901 Y184.132 E10.78557
G1 X130.59 Y185.014 E10.81667
G1 X130.366 Y185.623 E10.83825
G1 X130.113 Y186.267 E10.86127
G1 X129.856 Y186.891 E10.88371
G1 X129.632 Y187.422 E10.90288
G1 X129.312 Y188.086 E10.9274
G1 X129.044 Y188.578 E10.94603
G1 X128.737 Y189.091 E10.96592
G1 X128.409 Y189.592 E10.98583
G1 X128.038 Y190.109 E11.007
G1 X127.698 Y190.542 E11.02531
G1 X127.294 Y191.015 E11.046
G1 X126.848 Y191.494 E11.06777
G1 X126.386 Y191.948 E11.08931
G1 X125.91 Y192.377 E11.11062
G1 X125.378 Y192.814 E11.13352
